build/images/icons/study-2.svg

<svg width="20" height="16" viewBox="0 0 20 16" fill="none" xmlns="http://www.w3.org/2000/svg">
<path d="M3.05944 0.360229C3.0589 0.360229 3.0583 0.360229 3.05776 0.360229C2.8686 0.360229 2.69069 0.433967 2.55634 0.567974C2.42052 0.703463 2.3457 0.883868 2.3457 1.07592V11.8076C2.3457 12.2011 2.66712 12.5221 3.06227 12.5231C4.72814 12.5271 7.51913 12.8743 9.44452 14.8892V3.65815C9.44452 3.52475 9.41045 3.39943 9.34614 3.29573C7.76586 0.750803 4.72908 0.364135 3.05944 0.360229Z" fill="#52BFFF"/>
<path d="M17.6544 11.8076V1.07586C17.6544 0.883806 17.5796 0.703402 17.4438 0.567913C17.3094 0.433906 17.1314 0.360168 16.9424 0.360168C16.9418 0.360168 16.9412 0.360168 16.9407 0.360168C15.2711 0.364142 12.2343 0.750809 10.654 3.29573C10.5897 3.39944 10.5557 3.52476 10.5557 3.65816V14.8891C12.4811 12.8742 15.272 12.527 16.9379 12.523C17.333 12.522 17.6544 12.2011 17.6544 11.8076Z" fill="#52BFFF"/>
<path d="M19.2846 2.83514H18.7657V11.8076C18.7657 12.8124 17.9471 13.6317 16.9407 13.6342C15.5277 13.6376 13.1979 13.9139 11.5479 15.4756C14.4016 14.7769 17.41 15.2311 19.1244 15.6218C19.3385 15.6705 19.5597 15.6202 19.7312 15.4835C19.9022 15.3471 20.0002 15.1433 20.0002 14.9245V3.5507C20.0003 3.15616 19.6792 2.83514 19.2846 2.83514Z" fill="#52BFFF"/>
<path d="M1.23448 11.8076V2.83514H0.715558C0.321079 2.83514 0 3.15616 0 3.5507V14.9243C0 15.1431 0.0980475 15.3469 0.268957 15.4833C0.440338 15.6199 0.661349 15.6705 0.87576 15.6216C2.59024 15.2308 5.59867 14.7767 8.45228 15.4754C6.80231 13.9138 4.47247 13.6375 3.05947 13.6342C2.05321 13.6317 1.23448 12.8124 1.23448 11.8076Z" fill="#52BFFF"/>
</svg>

<svg width="20" height="16" fill="none" xmlns="http://www.w3.org/2000/svg"><path d="M3.06.36h-.002a.713.713 0 0 0-.712.716v10.732c0 .393.321.714.716.715 1.666.004 4.457.351 6.383 2.366V3.66a.686.686 0 0 0-.099-.363C7.766.75 4.73.364 3.06.36ZM17.654 11.808V1.076a.713.713 0 0 0-.712-.716h-.001c-1.67.004-4.707.39-6.287 2.936a.686.686 0 0 0-.098.362V14.89c1.925-2.015 4.716-2.362 6.382-2.366a.718.718 0 0 0 .716-.715Z" fill="#52BFFF"/><path d="M19.285 2.835h-.52v8.973a1.831 1.831 0 0 1-1.824 1.826c-1.413.004-3.743.28-5.393 1.842 2.854-.7 5.862-.245 7.576.146a.714.714 0 0 0 .876-.697V3.55a.716.716 0 0 0-.715-.716ZM1.234 11.808V2.835H.716A.716.716 0 0 0 0 3.551v11.373a.714.714 0 0 0 .876.697c1.714-.39 4.723-.844 7.576-.146-1.65-1.561-3.98-1.838-5.393-1.84a1.831 1.831 0 0 1-1.825-1.827Z" fill="#52BFFF"/></svg>
